Newaita-dark/actions/24/view-presentation.svg

<svg height="24" viewBox="0 0 24 24" width="24" xmlns="http://www.w3.org/2000/svg"><g fill="#e0e0e0"><path d="m4.464844 20.03125h14.882812c.277344 0 .496094.222656.496094.5v.992188c0 .273437-.21875.496093-.496094.496093h-14.882812c-.273438 0-.496094-.222656-.496094-.496093v-.992188c0-.277344.222656-.5.496094-.5zm0 0"/><path d="m3.96875 2.171875c-1.097656 0-1.984375.886719-1.984375 1.984375v11.90625c0 1.101562.886719 1.984375 1.984375 1.984375h15.875c1.101562 0 1.988281-.882813 1.988281-1.984375v-11.90625c0-1.097656-.886719-1.984375-1.988281-1.984375zm.992188 1.984375h13.890624c.550782 0 .992188.441406.992188.992188v9.921874c0 .550782-.441406.992188-.992188.992188h-13.890624c-.550782 0-.992188-.441406-.992188-.992188v-9.921874c0-.550782.441406-.992188.992188-.992188zm0 0"/><path d="m8.929688 18.542969h5.953124v.992187h-5.953124zm0 0"/><path d="m10.417969 6.632812c-.273438.003907-.496094.226563-.496094.5v5.953126c0 .402343.449219.640624.78125.417968l4.464844-2.976562c.296875-.199219.296875-.636719 0-.835938l-4.464844-2.976562c-.085937-.054688-.183594-.085938-.285156-.082032zm0 0"/></g></svg>

<svg xmlns="http://www.w3.org/2000/svg" xmlns:xlink="http://www.w3.org/1999/xlink" width="24px" height="24px" viewBox="0 0 24 24" version="1.1">
<g id="surface1">
     <defs>
  <style id="current-color-scheme" type="text/css">
   .ColorScheme-Text { color:#eeeeee; } .ColorScheme-Highlight { color:#424242; }
  </style>
 </defs>
<path style="fill:currentColor" class="ColorScheme-Text" d="M 4.464844 20.03125 L 19.347656 20.03125 C 19.625 20.03125 19.84375 20.253906 19.84375 20.53125 L 19.84375 21.523438 C 19.84375 21.796875 19.625 22.019531 19.347656 22.019531 L 4.464844 22.019531 C 4.191406 22.019531 3.96875 21.796875 3.96875 21.523438 L 3.96875 20.53125 C 3.96875 20.253906 4.191406 20.03125 4.464844 20.03125 Z M 4.464844 20.03125 "/>
     <defs>
  <style id="current-color-scheme" type="text/css">
   .ColorScheme-Text { color:#eeeeee; } .ColorScheme-Highlight { color:#424242; }
  </style>
 </defs>
<path style="fill:currentColor" class="ColorScheme-Text" d="M 3.96875 2.171875 C 2.871094 2.171875 1.984375 3.058594 1.984375 4.15625 L 1.984375 16.0625 C 1.984375 17.164062 2.871094 18.046875 3.96875 18.046875 L 19.84375 18.046875 C 20.945312 18.046875 21.832031 17.164062 21.832031 16.0625 L 21.832031 4.15625 C 21.832031 3.058594 20.945312 2.171875 19.84375 2.171875 Z M 4.960938 4.15625 L 18.851562 4.15625 C 19.402344 4.15625 19.84375 4.597656 19.84375 5.148438 L 19.84375 15.070312 C 19.84375 15.621094 19.402344 16.0625 18.851562 16.0625 L 4.960938 16.0625 C 4.410156 16.0625 3.96875 15.621094 3.96875 15.070312 L 3.96875 5.148438 C 3.96875 4.597656 4.410156 4.15625 4.960938 4.15625 Z M 4.960938 4.15625 "/>
     <defs>
  <style id="current-color-scheme" type="text/css">
   .ColorScheme-Text { color:#eeeeee; } .ColorScheme-Highlight { color:#424242; }
  </style>
 </defs>
<path style="fill:currentColor" class="ColorScheme-Text" d="M 8.929688 18.542969 L 14.882812 18.542969 L 14.882812 19.535156 L 8.929688 19.535156 Z M 8.929688 18.542969 "/>
     <defs>
  <style id="current-color-scheme" type="text/css">
   .ColorScheme-Text { color:#eeeeee; } .ColorScheme-Highlight { color:#424242; }
  </style>
 </defs>
<path style="fill:currentColor" class="ColorScheme-Text" d="M 10.417969 6.632812 C 10.144531 6.636719 9.921875 6.859375 9.921875 7.132812 L 9.921875 13.085938 C 9.921875 13.488281 10.371094 13.726562 10.703125 13.503906 L 15.167969 10.527344 C 15.464844 10.328125 15.464844 9.890625 15.167969 9.691406 L 10.703125 6.714844 C 10.617188 6.660156 10.519531 6.628906 10.417969 6.632812 Z M 10.417969 6.632812 "/>
</g>
</svg>
